X:1
T:Title
%%score 1 2
L:1/8
M:2/2
K:F
V:1 bass nm="Part_1"
V:2 bass nm="Part_2"
V:1
 F,3 E,/D,/ C,B,,C,>C, | F,,C, F,/E,/D,/C,/ B,,2 _E,C, | F,2 D,D, F,2 F,F, | %3
w: O Glo- ri- o- sa Do- mi-|na Re- gi- na An- ge- lo- rum Re-|i- na Re- gi- na Re-|
 B,/A,/B,/G,/ F,/G,/A,/B,/ CC,F,C,/D,/ |[M:3/2] E,F,G,A, G,/F,/E,/D,/ C,2 F,,4 | %5
w: gi- na An- ge- lo- * * * * * rum con- so-|la- trix af- flic- to- * * * * rum|
[M:6/2] F,4 F,4 D,4 _E,8 B,,4 |[M:3/2] F,8 F,4 |[M:4/4] B,,2 B,2 B,2 A,2 | %8
w: au- xi- li- a- trix|om- ni-|um in te spe-|
 G,3 G, F,/A,/A,/B,/ C/C,/C,/D,/ | E,F, G,2 C,2 D,2 |[M:4/8] A,,4 | %11
w: an- ti- um ad- iu- va nos ad- iu- va|nos cla- man- tes ad|te|
[M:6/2] D,4 D,4 D,4 G,6 G,2 G,4 | F,4 F,4 D,4 C,6 C,2 C,4 | z12 F,6 F,2 B,,4 | F,8 D,4 _E,8 C,4 | %15
w: Tuc- cur- re mi- se- ris|in te spe- ran- ti- bus|li- be- ra|os de- fen- de|
[M:2/2] B,,B,/A,/ G,/F,/G,/A,/ B,2 F,F,/E,/ |[M:3/2] D,/C,/D,/E,/ F,2 D,D, C,2 F,,4 | %17
w: nos de- pre- can- * * * * tes de- pre-|can- * * * * tes vo- can- tes|
[M:6/2] F,8 C,4 G,8 D,4 | F,8 C,4 G,8 C,4 | G,4 D,4 F,4 C,8 z4 | z12 z12 | z12 z12 | %22
w: et Lau- dan- tes|o- men tu- um|in can- ti- cis|||
[M:5/2] F,4 D,4 B,,2 B,,2 F,3 F, B,,4 |[M:12/2] _E,4 E,4 D,4 G,8 F,4 B,6 A,2 G,4 F,8 F,4 | %24
w: in chor- dis et or- ga- no|Sanc- ta ma- ri- a dul- cis et pi- a|
[M:6/2] F,6 E,2 D,4 C,8 C,4 |[M:4/4] C,3 B,,/A,,/ G,,4 | C,C,/D,/ E,/D,/E,/F,/ G,A,/A,/ G,2 | %27
w: dul- cis et pi- a|dul- cis et pi-|a in- ter- ce- * * * * de pro no-|
 C,F,,/G,,/ A,,/G,,/A,,/B,,/ C,D,/D,/ C,2 |[M:3/2] F,,4 z4 z2 z F,/E,/ | %29
w: bis in- ter- ce- * * * * de pro no|bis in- ter-|
[M:2/2] D,/_E,/D,/C,/B,,A,,/G,,/ F,,2 B,,C,/B,,/ | A,,/B,,/A,,/G,,/F,,A,,/B,,/ C,4 | %31
w: ce- * * * * de pro no- bis in- ter-|ce- * * * * de pro no-|
 F,,2 F,3 D,C,>C, |[M:5/2] F,,2 C,3 A,,G,,>G,, C,2 F,4 D,2 C,4 |[M:3/2] F,,4 z4 z4 | %34
w: is a- pud Do- mi|num a- pud Do- mi- num AL- le- lu-|ia|
[M:2/2] z4 z2 z C,/C,/ | F,F, z D,/D,/ G,G, z E,/E,/ | A,A, z F,/F,/ B,/B,/G,/G,/ _E,2 | %37
w: Al- le-|lu- ia Al- le- lu- ia Al- le-|u- ia Al- le- lu- ia Al- le- lu-|
[M:4/2] B,, F,2 D, C,4 F,,8 |] %38
w: ia Al- le- lu- ia.|
V:2
 F,3 E,/D,/ C,B,,C,>C, | F,, C,F,/E,/D,/C,/ B,,2 _E,C, | F,2 D,D, F,2 F,F, | %3
 B,/A,/B,/G,/F,/G,/A,/B,/ CC,F,C,/D,/ |[M:3/2] E,F,G,A, G,/F,/E,/D,/ C,2 F,,4 | %5
[M:6/2] F,4 F,4 D,4 _E,8 B,,4 |[M:3/2] F,8 F,4 |[M:4/4] B,,2 B,2 B,2 A,2 | %8
 G,3 G,F,/A,/A,/B,/C/C,/C,/D,/ | E,F, G,2 C,2 D,2 |[M:4/8] A,,4 |[M:6/2] D,4 D,4 D,4 G,6 G,2 G,4 | %12
 F,4 F,4 D,4 C,6 C,2 C,4 | F,6 F,2 B,,4 F,6 F,2 B,,4 | F,8 D,4 _E,8 C,4 | %15
[M:2/2] B,,B,/A,/G,/F,/G,/A,/ B,2 F,F,/E,/ |[M:3/2] D,/C,/D,/E,/ F,2 D,2 C,2 F,,4 | %17
[M:6/2] F,8 C,4 G,8 D,4 | F,8 C,4 G,8 C,4 | G,4 D,4 F,4 C8 G,4 | D8 A,4 C8 G,4 | %21
 D8 G,4 B,4 C4 C,4 |[M:5/2] F,4 D,4 B,,2 B,,2 F,4 B,,4 | %23
[M:12/2] _E,4 E,4 D,4 G,8 F,4 B,6 A,2 G,4 F,8 F,4 |[M:6/2] F,6 E,2 D,4 C,8 C,4 | %25
[M:4/4] C,3 B,,/A,,/ G,,4 | C,C,/D,/E,/D,/E,/F,/ G,A,/A,/ G,2 | %27
 C,F,,/G,,/A,,/G,,/A,,/B,,/ C,D,/D,/ C,2 |[M:3/2] F,,3 F,/G,/A,/G,/A,/B,/ CD C2 F,F,/E,/ | %29
[M:2/2] D,/_E,/D,/C,/ B,,A,,/G,,/ F,,2 B,,C,/B,,/ | A,,/B,,/A,,/G,,/ F,,A,,/B,,/ C,4 | %31
 F,,2 F,3 D,C,>C, |[M:5/2] F,,2 C,3 A,, G,,2 C,2 F,4 D,2 C,4 | %33
[M:3/2] F,,3 F,,/F,,/B,,B,, z G,,/G,,/C,C, z A,,/A,,/ |[M:2/2] D,/D,/=B,,/C,/ G,,2 C,2 z C,/C,/ | %35
 F,F, z D,/D,/G,G, z E,/E,/ | A,A, z F,/F,/B,/B,/G,/G,/ _E,2 |[M:4/2] B,, F,2 D, C,4 F,,8 |] %38

